X: 28083
T: Mr Turner's Academy Cotillion
R: polka
M: 2/4
K: Gmajor
|:[D2B2g2] [D2B2g2]|d3 B|cA GF|G/F/G/A/ GG|[D2B2g2] [D2B2g2]|d3 B|cA GF|G2 G2:|
|:cB cA|d>e dB cA GF|G/F/G/A/ GB|cB cA|d>e dB|cA GF|G2 G2:|
|:DG DG|DG/A/ BB|DG DG|DG/A/ B2:|
cB cA|d>e dB cA GF|G/F/G/A/ GB|cB cA|d>e dB|cA GF|G2 G2||

